storage/app/icons/phosphoricons/regular/high-heel.svg

<svg xmlns="http://www.w3.org/2000/svg" fill="currentColor" viewBox="0 0 256 256"><path d="m231 156.19-51-11.49L69.66 34.34a8 8 0 0 0-11.56.26C36.11 58.64 24 89 24 120v72a16 16 0 0 0 16 16h32a16 16 0 0 0 16-16v-48.94c2.49 1.45 4.94 3 7.34 4.64a112.45 112.45 0 0 1 40.55 50.39 15.9 15.9 0 0 0 14.83 9.91H240a16 16 0 0 0 16-16v-4.73a31.72 31.72 0 0 0-25-31.08M72 192H40v-63.71a110.9 110.9 0 0 1 32 7.12Zm168 0h-89.32a128.36 128.36 0 0 0-46.27-57.46 126.9 126.9 0 0 0-64.12-22.26 110.67 110.67 0 0 1 24.17-60.5l105.88 105.88a8 8 0 0 0 3.9 2.14l53.24 12A15.81 15.81 0 0 1 240 187.31Z"/></svg>

<svg xmlns="http://www.w3.org/2000/svg" viewBox="0 0 256 256" fill="currentColor"><path d="M231,156.19,180,144.7,69.66,34.34a8,8,0,0,0-11.56.26C36.11,58.64,24,89,24,120v72a16,16,0,0,0,16,16H72a16,16,0,0,0,16-16V143.06c2.49,1.45,4.94,3,7.34,4.64a112.45,112.45,0,0,1,40.55,50.39A15.9,15.9,0,0,0,150.72,208H240a16,16,0,0,0,16-16v-4.73A31.72,31.72,0,0,0,231,156.19ZM72,192H40V128.29a110.88,110.88,0,0,1,32,7.12Zm168,0H150.68a128.36,128.36,0,0,0-46.27-57.46,126.9,126.9,0,0,0-64.12-22.26A110.67,110.67,0,0,1,64.46,51.78L170.34,157.66a8,8,0,0,0,3.9,2.14l53.24,12A15.81,15.81,0,0,1,240,187.31Z"/></svg>
